X:1
T:Title
%%score { 1 | 2 }
L:1/8
Q:1/4=106
M:4/4
K:G
V:1 treble nm="Grand Piano"
V:2 bass 
V:1
 G2 G2 G2 G2 | [EA]3 [FA] B2 G2 | e2 d2 B2 G2 | G3 A [FA]2 D2 | G2 G2 G2 G2 | %5
w: Frank~L.~Armstrong * * *|||||
 [A,EA]3 [CEA] [^DB]2 [DF]2 | [EG]2 [Ge]2 [DGd]2 [EGB]2 |[M:9/8] [Fc]3 F A2 G3 | %8
w: |||
[M:4/4] d3 B [EGe]2 [Gd]2 | [Fd]3 [Fc] B4 | A2 G2 F2 G2 |[M:3/4] [FA]6 |[M:1/4] A2 | %13
w: |||||
[M:4/4] d3 d ^c2 A2 | [Fc]3 [Fc] [DGB]2 [A,EA]2 | [B,DG] [DGB]3 [CFB]2 [CFA]2 | [B,G]6 z2 |] %17
w: ||||
V:2
 [G,B,D]2 [G,CE]2 [G,B,D]2 [E,B,E]2 | [C,A,]3 [D,C][K:treble] [G,D]2 [G,B,D]2 | %2
 [G,CG]2 [G,B,G]2 [G,DG]2[K:bass] [G,B,D]2 | [E,A,^C]3 [A,CG] [D,D]2 [F,=C]2 | %4
 [G,B,D]2 [G,CE]2 [G,B,D]2 [E,B,E]2 | C,3 A,, [B,,B,]2 [B,,B,]2 | [C,G,]2 [C,C]2 B,,2 E,2 | %7
[M:9/8] [D,A,]3 [D,CD][K:treble] [G,CD]2 [G,B,D]3 |[M:4/4] [G,B,G]3 [G,DG][K:bass] C,2 [G,B,]2 | %9
 [D,C]3 [D,D][K:treble] [G,DG]4 | [CDF]2 [B,D]2 [A,CD]2 [G,B,D]2 |[M:3/4] [D,D]6 |[M:1/4] [CDF]2 | %13
[M:4/4] [B,DG]3 [B,DG] [A,EG]2 [A,EG]2 | [D,D]3 [D,D] G,2 C,2 | D, D,3 D,2 D,2 | G,6 z2 |] %17

